X: 1
T: Per Spelman
R: waltz
O: Trad Norway
M: 3/4
L: 1/4
K: D
A | "A7"AEG | "D"FDd | "A7"cdB | "D"A2 :| \
|: A | "A7"A>Bc | "D"dAF | "A7"F>GE |1 A2 :|2 D2 :| \
A | "D"d2A | F2E | D/D/DF | D/D/DF | "A7"E2C | "D"D2 |]
